!!!!SEGMENT: pl-kozmzk--mzk-m-346--032_walczynski-franciszek--cantantibus-organis-allegro-moderato.krn
!!!cenid: 18xx:2827
!!!COM: Walczyński, Franciszek
!!!COM-rismID: pe30021989
!!!CDT: ~1852-1937
!!!CNT: Polish
!!!GTL: Cantantibus organis op. 10
!!!OTL: 32. Allegro moderato
!!!PDT: 1898
!!!AGN: Secular
!!!SMS-siglum: PL-KOZmzk
!!!SMS-shelfmark: mzk/m/346
!!!SMS-shelfwork: 032 G
!!!SMS-variant:
!!!SMS-altvar:
!!!NIFC-rismSourceID: 1001109424
!!!NIFC-islandoraID: pl-kozmzk:7453
!!!URL-pdf-islandora: https://repozytorium.nifc.pl/islandora/object/pl-kozmzk%3A7453/datastream/PDF/view
!!!URL-scan: https://polish.musicsources.pl/pl/lokalizacje/galeria/druki-muzyczne/7581 @EN{Scan on Polish Music Sources Website} @PL{Skany w portalu Dziedzictwo Muzyki Polskiej w otwartym dostępie}
!!!ONB-nifc:
!!!AIN: 1 organ
!!!key:
**kern	**kern	**dynam
*part1	*part1	*part1
*staff2	*staff1	*
*Iorgan	*Iorgan	*
*I"Organo	*I"Organo	*
*clefF4	*clefG2	*
*k[b-]	*k[b-]	*
*F:	*F:	*
*M2/4	*M2/4	*
=1	=1	=1
*^	*^	*
!!LO:TX:a:B:t=Allegro moderato.
!	!	!	!	!LO:DY:b=2
2r	8FF\L	2r	2r	p
.	8EE\	.	.	.
.	8FF\	.	.	.
.	8GG\J	.	.	.
=2	=2	=2	=2	=2
(8F/L	4.AA\	2r	2r	.
8E/	.	.	.	.
8F/	.	.	.	.
8G/J	8C\	.	.	.
=3	=3	=3	=3	=3
8A/L	4.F\	2r	2r	.
8G/	.	.	.	.
8A/	.	.	.	.
8B-/J)	8G\	.	.	.
=4	=4	=4	=4	=4
(4A>\	2r	2raa	(>4c/	f
16B->\LL	.	.	16d/LL	<
16c>\	.	.	16e/	.
16d>\	.	.	16f/	.
16e>\JJ	.	.	16g/JJ	.
=5	=5	=5	=5	=5
4f>\)	2ryy	2ryy	4a/)	.
4r	.	.	4r	[
=6	=6	=6	=6	=6
!	!	!	!	!LO:DY:t=pf
4c\	2ryy	2e/ 2g 2cc	2ryy	p
4B-\	.	.	.	.
=7	=7	=7	=7	=7
4.A^\	2ryy	4.c^/ 4.f 4.cc	2ryy	.
8G\	.	8d/ 8g 8b-	.	.
=8	=8	=8	=8	=8
!	!	!	!	!LO:DY:a
(4c/	(4c\	(4a/	4f\	p
4B-/	8C\L	4g/	4e\	.
.	8C#X\J	.	.	.
=9	=9	=9	=9	=9
2A/	4D\	4f/	[2d\	.
.	4Cn\	4f#X/	.	.
=10	=10	=10	=10	=10
4G/	2BB-\	4g/	2d\]	.
8F/L	.	4g#X/	.	.
16E/L	.	.	.	.
16D/JJ	.	.	.	.
=11	=11	=11	=11	=11
!	!	!	!	!LO:DY:a
2E/)	2AA;\)	2a;/)	2c#X\	f
=12	=12	=12	=12	=12
!!LO:LB:g=original
2ryy	8AA\L	2rdd	2rg	p
.	8GG#X\	.	.	.
.	8AA\	.	.	.
.	8BBn\J	.	.	.
=13	=13	=13	=13	=13
8A/L	4.C#X\	2rdd	2rg	.
8G#X/	.	.	.	.
8A/	.	.	.	.
8Bn/J	8E\	.	.	.
=14	=14	=14	=14	=14
8c#X/L	4.A\	2rdd	2rg	.
8Bn/	.	.	.	.
8c#/	.	.	.	.
8d/J	8B\	.	.	.
=15	=15	=15	=15	=15
2ryy	2ryy	(4c#X\	(4e/	f
.	.	16d\LL	16f#X/LL	.
.	.	16e\	16g#X/	.
.	.	16f\	16a/	.
.	.	16g\JJ	16bn/JJ	.
=16	=16	=16	=16	=16
4ryy	2ryy	4a\)	4cc#X/)	.
4r	.	4r	4ryy	.
=17	=17	=17	=17	=17
!LO:TX:i:b=2:t=Ped.	!	!	!	!LO:DY:a:t=pf
[2f/	(4B-X\	2dd/	(4g\	p
.	4Bn\	.	4a-X\	.
=18	=18	=18	=18	=18
4.f/]	4.c\	4.cc/	4.an\	.
8c/	8C\)	8a/	8f\)	.
=19	=19	=19	=19	=19
!	!	!	!	!LO:DY:a
!	!	!	!	!LO:HP:a
(4d/	(4BB-\	2g/	(4f\	pp >
8c/L	8C\L	.	4en\	.
8B-X/J	8C#X\J	.	.	.
=20	=20	=20	=20	=20
2A/)	2D\)	2f/	2f\)	]
=21	=21	=21	=21	=21
!	!	!	!	!LO:DY:t=pf
(2d/	(4BB-\	(4g/	[2f\	p
.	8AA\L	8a/L	.	.
.	8GG\J	8b-/J	.	.
=22	=22	=22	=22	=22
4.c/	2C\	4.a/	4.f\]	.
8B-/	.	8g/)	8e\	.
=23	=23	=23	=23	=23
!	!	!	!	!LO:DY:a
8A/)	8FF\)	(8f/L	8f\	f
8rB	8rBB	8e/	8r	.
4rB	4rBB	8f/	8r	.
.	.	8g/J	(<8c\	.
=24	=24	=24	=24	=24
!!LO:LB:g=original
2rF	2rBB	8f\L	8a/L	.
.	.	8e\	8g/J	.
.	.	8f\	8a/L	.
.	.	8g\J)	8b-/J)	.
=25	=25	=25	=25	=25
2rF	2rBB	(4cc/	(4a\	.
.	.	16dd/LL	16b-\LL	.
.	.	16ee/	16cc\	.
.	.	16ff/	16dd\	.
.	.	16gg/JJ	16ee\JJ	.
=26	=26	=26	=26	=26
2rF;	2rBB	4aa\)	4ff\)	.
.	.	4rgg;	4r	.
=27	=27	=27	=27	=27
(4G/	2r	(4b-/	4d\	pp
8c/L	.	4g/	4e\	.
8B-/J	.	.	.	.
=28	=28	=28	=28	=28
2A/)	2r	2cc^/)	2f\	.
=29	=29	=29	=29	=29
!	!LO:TX:i:b=2:t=Ped.	!	!	!
(2B-/	(4GG\	(4b-/	4d\	f
.	4C\	4g/	4e\	.
=30	=30	=30	=30	=30
2A/)	2D\)	2f#X/)	2d\	.
=31	=31	=31	=31	=31
!	!	!	!	!LO:DY:a
(2G/	(4BB-\	(4g/	4d\	pp
.	4C\	4e/	4B-\	.
=32	=32	=32	=32	=32
2A/)	2FF\)	[2f/)	(2c\	.
=33	=33	=33	=33	=33
!	!	!	!	!LO:DY:b=2
!	!	!	!	!LO:HP:a
([2A/	(8FF\L	2f/_	[2c\	pp <
.	8EE\	.	.	.
.	8FF\	.	.	.
.	8GG\J	.	.	.
=34	=34	=34	=34	=34
2A/_	8AA\L	2f/_	2c\_	.
.	8GG\	.	.	.
.	8AA\	.	.	.
.	8BB-\J	.	.	.
=35	=35	=35	=35	=35
!LO:TX:b:i:t=rit.	!	!	!	!LO:HP:a
4A/]	4C\	4.f/]	4c\]	[ >
4G/	8D-X\L	.	4B-\	.
.	8C\J	8e/	.	.
=36	=36	=36	=36	=36
2A/)	2FF;\) 2C	2f;/	2c\)	]
*v	*v	*	*	*
*	*v	*v	*
==	==	==
*-	*-	*-
!!!system-decoration: {(s1,s2)}
!!!RDF**kern: > = above
!!!RDF**kern: < = below
!!!ENC: Kamil Watkowski
!!!END: 2021-08-09
!!!YEC: Copyright 2022 Narodowy Instytut Fryderyka Chopina (https://polishscores.org)
!!!YEM: Licence CC BY 4.0 (https://creativecommons.org/licenses/by/4.0)
